X:201
T:Gates of Mullagh
R:reel
D:The Magic Square: Traditional Irish Music from Boston
Z:transcribed by Dave Marshall
M:C|
K:G
|: G3B d~B3 | eBdB cBAF | D3E FGAB | BAed cAFA |
Gggf gdBd | eBdB cBAc | B~g3 bgag |1 fdcA BGGF :|2 fdcA BGGA |
|: Bdge d~B3 | cBAG FADF | GABG Aaag | fgag fdce |
d~g3 dBGB | cBAG FADC | B,DGB A~c3 |1 dBcA BGGA :|2 dBcA BGGF |
